X:1
T:The Waiting Savior
T:The Waiting Savior
T:Hart Pease Danks
T:Lillian Stiles Webster, 1902
T:Public Domain Courtesy of the Cyber Hymnal™
C:Hart Pease Danks
Z:Public Domain
Z:Courtesy of the Cyber Hymnal™
%%score ( 1 2 ) ( 3 4 )
L:1/8
Q:1/4=105
M:4/4
K:Eb
V:1 treble 
V:2 treble 
V:3 bass 
V:4 bass 
V:1
 E3 [EF] [EG]E [EG]>[FA] | [GB]4 [EG]2 z2 | [EF]2 [EG]2 [EA]2 [DA]2 | [EG]6 z2 | %4
w: 1.~I am wait- ing at the|por- tal;|Do not pass Me|by!|
w: 2.~I am wait- ing at the|por- tal;|Do I wait in|vain?|
w: 3.~I am wait- ing at the|por- tal,|Pa- tient- ly I|wait;|
 [F=A]3 [FA] [FG]F | [FG][F=A] | [FB]4 F4 | [Fc]3 [Fc] [Fc][F=B][Fc][F^c] | %8
w: Tho’ the cares of|life are|press- ing,|Lin- ger to re- ceive a|
w: Seek- ing on- ly|earth- ly|plea- sures|And re- ject- ing heav’n- ly|
w: In My Fa- ther’s|name re-|ceiv- ing|All who come to Me be-|
 [Fd]2 [FB]2 [GB]2 [EG]2 | [DF]4 [Ec]4 | [DB]6 ||"^Refrain" B>B | B2 D4 c>B | B2 E4 [B,E]>[B,E] | %14
w: bless- ing, Ere the|night draws|nigh.||||
w: trea- sures Do not|bring thee|gain.|At the|por- tal, I am|wait- ing, I am|
w: liev- ing, Ere it|be too|late.||||
 [B,D]2 [B,D]2 [B,E]2 [EG]2 | [DF]6 [DG]>[DF] | E2 E2 [EF]2 [DF]2 | (G2 Ac) !fermata![EB]2 (EF) | %18
w: ||||
w: wait- ing still for|thee; At the|por- tal I am|wait- * * ing, Then *|
w: ||||
 [EG]2 [EA]2 [DF]3 E | E8 |] %20
w: ||
w: come, O come to|Me.|
w: ||
V:2
 E3 E x4 | x8 | x8 | x8 | x5 F | x2 | x4 F4 | x8 | x8 | x8 | x6 || x2 | x2 (B,>B,B,B,) x2 | %13
 x2 (B,>B,B,B,) x2 | x8 | x8 | E2 E2 x4 | E4 E2 x2 | x7 E | E8 |] %20
V:3
 [E,G,]3 [E,A,] [E,B,][E,G,] [E,B,]>[E,B,] | [E,E]4 [E,B,]2 z2 | [A,C]2 [G,C]2 [F,C]2 [B,,B,]2 | %3
w: ~ ~ ~ ~ ~ ~|~ ~|~ ~ ~ ~|
 [E,B,]6 z2 | [E,C]3 [E,C] [E,B,][E,=A,] | [E,B,][E,C] | [D,B,]4 [D,B,]4 | %7
w: ~|~ ~ ~ ~|~ ~|~ ~|
 [F,=A,]3 [F,A,] [F,A,][F,A,][F,A,][F,A,] | B,2 [D,B,]2 [E,B,]2 [E,B,]2 | [F,B,]4 [F,=A,]4 | %10
w: ~ ~ ~ ~ ~ ~|~ ~ ~ ~|~ ~|
 [B,,B,]6 || z2 | z2 [F,A,]>[F,A,] [F,A,][F,A,] z2 | z2 [E,G,]>[E,G,] [E,G,][E,G,] [E,G,]>[E,G,] | %14
w: ~||At the por- tal,|I am wait- ing, ~ ~|
 [F,A,]2 [F,A,]2 [E,G,]2 [E,B,]2 | [B,,B,]2 [B,,B,]>[B,,B,] [B,,B,]2 [B,,B,]>[B,,A,] | %16
w: ~ ~ ~ ~|~ still for thee * *|
 [E,G,]2 [C,G,]2 [B,,B,]2 [B,,B,]2 | B,2 A,2 !fermata![E,G,]2 [C,=A,]2 | %18
w: ||
 [B,,B,]2 [B,,C]2 [B,,A,]3 [E,G,] | [E,G,]8 |] %20
w: ||
V:4
 x8 | x8 | x8 | x8 | x6 | x2 | x8 | x8 | B,2 x6 | x8 | x6 || x2 | x8 | x8 | x8 | x8 | x8 | %17
 (E,_D, C,=A,,) x4 | x8 | x8 |] %20

